src/assets/duotone/Flag.svg

<svg width="24" height="24" viewBox="0 0 24 24"  xmlns="http://www.w3.org/2000/svg">
<path d="M5.1499 22C4.7399 22 4.3999 21.66 4.3999 21.25V2.75C4.3999 2.34 4.7399 2 5.1499 2C5.5599 2 5.8999 2.34 5.8999 2.75V21.25C5.8999 21.66 5.5599 22 5.1499 22Z" />
<path opacity="0.4" d="M18.02 12.3304L16.8 11.1104C16.51 10.8604 16.34 10.4904 16.33 10.0804C16.31 9.63035 16.49 9.18035 16.82 8.85035L18.02 7.65035C19.06 6.61035 19.45 5.61035 19.12 4.82035C18.8 4.04035 17.81 3.61035 16.35 3.61035H5.15002C4.94002 3.62035 4.77002 3.79035 4.77002 4.00035V16.0004C4.77002 16.2104 4.94002 16.3804 5.15002 16.3804H16.35C17.79 16.3804 18.76 15.9404 19.09 15.1504C19.42 14.3504 19.04 13.3604 18.02 12.3304Z" />
</svg>

<?xml version="1.0" encoding="UTF-8"?>
<svg width="24" height="24" viewBox="0 0 24 24" xmlns="http://www.w3.org/2000/svg">
 <path d="m5.1499 22c-0.41 0-0.75-0.34-0.75-0.75v-18.5c0-0.41 0.34-0.75 0.75-0.75s0.75 0.34 0.75 0.75v18.5c0 0.41-0.34 0.75-0.75 0.75z"/>
 <path d="m18.02 12.33-1.22-1.22c-0.29-0.25-0.46-0.62-0.47-1.03-0.02-0.45005 0.16-0.90005 0.49-1.23l1.2-1.2c1.04-1.04 1.43-2.04 1.1-2.83-0.32-0.78-1.31-1.21-2.77-1.21h-11.2c-0.21 0.01-0.38 0.18-0.38 0.39v12c0 0.21 0.17 0.38 0.38 0.38h11.2c1.44 0 2.41-0.44 2.74-1.23 0.33-0.8-0.05-1.79-1.07-2.82z" opacity=".4"/>
</svg>
